svg/fluentui-system-icons/ic_fluent_text_wrap_off_16_filled.svg

<svg width="16" height="16" viewBox="0 0 16 16" fill="none" xmlns="http://www.w3.org/2000/svg">
<path d="M11.7929 12.5L14.1464 14.8536C14.3417 15.0488 14.6583 15.0488 14.8536 14.8536C15.0488 14.6583 15.0488 14.3417 14.8536 14.1464L1.85355 1.14645C1.65829 0.951184 1.34171 0.951184 1.14645 1.14645C0.951184 1.34171 0.951184 1.65829 1.14645 1.85355L2.38664 3.09374C2.15606 3.22168 2 3.46762 2 3.75C2 4.16421 2.33579 4.5 2.75 4.5H3.79289L6.29289 7H2.75C2.33579 7 2 7.33579 2 7.75C2 8.16421 2.33579 8.5 2.75 8.5H7.79289L9.36612 10.0732L8.21967 11.2197C7.92678 11.5126 7.92678 11.9874 8.21967 12.2803L9.71967 13.7803C10.0126 14.0732 10.4874 14.0732 10.7803 13.7803C11.0732 13.4874 11.0732 13.0126 10.7803 12.7197L10.5607 12.5H11.7929ZM9.12109 7L10.6211 8.5H12.25C12.9404 8.5 13.5 9.05964 13.5 9.75C13.5 10.1921 13.2704 10.5807 12.924 10.8029L13.9959 11.8748C14.609 11.3704 15 10.6059 15 9.75C15 8.23122 13.7688 7 12.25 7H9.12109ZM5.12109 3L6.62109 4.5H13.25C13.6642 4.5 14 4.16421 14 3.75C14 3.33579 13.6642 3 13.25 3H5.12109ZM2 11.75C2 11.3358 2.33579 11 2.75 11H5.75C6.16421 11 6.5 11.3358 6.5 11.75C6.5 12.1642 6.16421 12.5 5.75 12.5H2.75C2.33579 12.5 2 12.1642 2 11.75Z" fill="#212121"/>
</svg>

<svg xmlns="http://www.w3.org/2000/svg" width="16" height="16"><path d="m11.793 12.5 2.353 2.354a.5.5 0 0 0 .708-.708l-13-13a.5.5 0 1 0-.708.708l1.24 1.24A.75.75 0 0 0 2.75 4.5h1.043l2.5 2.5H2.75a.75.75 0 0 0 0 1.5h5.043l1.573 1.573L8.22 11.22a.75.75 0 0 0 0 1.06l1.5 1.5a.75.75 0 1 0 1.06-1.06l-.22-.22h1.233ZM9.12 7l1.5 1.5h1.629a1.25 1.25 0 0 1 .674 2.303l1.072 1.072A2.75 2.75 0 0 0 12.25 7H9.121Zm-4-4 1.5 1.5h6.629a.75.75 0 0 0 0-1.5H5.121ZM2 11.75a.75.75 0 0 1 .75-.75h3a.75.75 0 0 1 0 1.5h-3a.75.75 0 0 1-.75-.75Z"/></svg>
